packages/core/src/svgs/tokens/branded/PGX.svg

<svg width="24" height="24" viewBox="0 0 24 24" fill="none" xmlns="http://www.w3.org/2000/svg">
<path d="M2.53674 16.4512C3.01406 15.8965 4.48471 15.2257 7.05192 15.2257H11.7283C15.1469 15.2321 21.9843 13.5229 21.9843 7.93047C22.1519 6.05989 21.0555 2.3252 15.3147 2.3252C9.574 2.3252 7.39378 4.04096 6.41334 5.89219L2.23358 16.2836C2.18843 16.3932 2.27227 16.5158 2.39483 16.5158C2.45288 16.5158 2.50449 16.4899 2.53674 16.4512ZM8.45163 11.5878L9.89006 7.59506C9.90842 7.54802 9.93461 7.50442 9.96742 7.46604C10.3545 7.00808 12.1025 6.19535 13.7924 6.19535H13.8764C16.0436 6.19535 18.1269 6.19535 18.1269 7.88532C18.1269 9.60112 15.6308 11.3556 12.5024 11.3556H9.72872C9.23852 11.3556 8.82568 11.4846 8.58708 11.5491L8.45163 11.5878Z" fill="#03EDAE"/>
<path d="M8.0258 21.0051C7.68394 21.7791 6.98087 21.6694 6.55515 21.6694C2.685 21.6694 1.91096 20.1602 2.00772 19.399C2.83981 16.419 8.45797 16.5158 9.18679 16.5158C9.77376 16.5158 9.78024 16.9414 9.70935 17.1607L8.0258 21.0051Z" fill="url(#paint0_linear_364_8626)"/>
<defs>
<linearGradient id="paint0_linear_364_8626" x1="4.52976" y1="16.8195" x2="6.19394" y2="21.7603" gradientUnits="userSpaceOnUse">
<stop stop-color="#202D52"/>
<stop offset="1" stop-color="#05D8A8"/>
</linearGradient>
</defs>
</svg>

<svg xmlns="http://www.w3.org/2000/svg" width="24" height="24" fill="none" viewBox="0 0 24 24">
    <path fill="#03EDAE" d="M2.537 16.451c.477-.555 1.948-1.225 4.515-1.225h4.676c3.419.006 10.256-1.703 10.256-7.296.168-1.87-.929-5.605-6.67-5.605s-7.92 1.716-8.9 3.567l-4.18 10.392a.17.17 0 0 0 .16.232c.059 0 .11-.026.143-.065m5.915-4.863L9.89 7.595a.5.5 0 0 1 .077-.129c.387-.458 2.135-1.27 3.825-1.27h.084c2.168 0 4.25 0 4.25 1.69 0 1.715-2.495 3.47-5.624 3.47H9.73c-.49 0-.903.129-1.142.193z"/>
    <path fill="url(#PGX__a)" d="M8.026 21.005c-.342.774-1.045.664-1.47.664-3.871 0-4.645-1.509-4.548-2.27.832-2.98 6.45-2.883 7.179-2.883.587 0 .593.425.522.645z"/>
    <defs>
        <linearGradient id="PGX__a" x1="4.53" x2="6.194" y1="16.82" y2="21.76" gradientUnits="userSpaceOnUse">
            <stop stop-color="#202D52"/>
            <stop offset="1" stop-color="#05D8A8"/>
        </linearGradient>
    </defs>
</svg>
